X:170
%%etbk:tnset id:56,pos:1,rep:3x,ant:
%%etbk:tnset id:262,pos:8,rep:4x+A,ant:
%%etbk:tnset id:288,pos:3,rep:3x,ant:
%%etbk:tnset id:509,pos:1,rep:3x,ant:
%%etbk:wsite http://www.thesession.org/tunes/display/87
%%etbk:pldat 2016-06-23T19:13,2016-06-22T15:24,2016-06-21T16:04,2016-06-18T16:24,2016-06-18T15:44,2016-05-05T14:13,2016-05-03T16:02,2016-04-09T16:03,2016-04-07T17:10,2016-04-05T16:45,2016-04-04T19:11,2016-04-03T14:49,2016-03-30T16:54,2016-03-11T16:15,2016-03-09T17:41,2016-03-08T15:34,2016-03-05T15:17,2016-02-27T15:19,2016-02-16T17:28,2015-11-04T16:28,2015-10-29T18:39,2015-10-27T17:05,2015-10-25T14:17,2015-10-21T16:43,2015-10-14T17:51,2015-10-06T15:21,2015-09-09T17:28,2015-09-09T16:53,2015-09-03T16:56,2015-09-01T16:41,2015-08-30T14:58,2015-08-06T17:58,2015-08-05T16:53,2015-08-04T17:00,2015-08-03T18:46,2015-07-27T18:29,2015-06-26T17:12,2015-06-23T18:11,2015-06-22T18:01,2015-06-18T19:17,2015-06-18T18:21,2015-06-16T16:29,2015-05-27T18:30,2015-05-07T18:44,2015-04-16T19:23,2015-04-15T16:47,2015-04-13T19:03,2015-04-12T11:31,2015-04-11T14:44,2015-04-08T17:09,2015-03-19T19:20,2015-03-18T17:21,2015-03-16T19:49,2015-03-15T14:32,2015-03-12T18:32,2015-03-10T18:24,2015-03-09T19:04,2015-03-04T17:57,2015-02-22T16:07,2015-02-21T17:12,2015-02-18T16:54,2015-02-17T18:13,2015-02-17T17:07,2015-02-14T12:48,2015-02-13T18:49,2015-02-10T16:45,2015-02-03T17:23,2015-01-29T18:52,2015-01-29T18:16,2015-01-21T18:26,2015-01-14T15:41,2015-01-13T16:59,2015-01-12T19:15,2015-01-10T15:27,2015-01-08T18:46,2015-01-07T17:10,2015-01-06T18:38,2015-01-05T19:21,2014-11-05T19:06,2014-11-04T16:53,2014-11-02T14:03,2014-10-28T17:07,2014-10-19T15:11,2014-08-20T18:25,2014-08-18T18:10,2014-06-25T16:03,2014-06-24T18:47,2014-06-05T18:07,2014-03-05T19:21,2014-03-02T16:46,2014-02-24T18:03,2014-02-18T17:16,2014-01-02T11:30,2013-12-28T14:33,2013-12-27T17:04,2013-10-30T16:08,2013-10-28T18:59,2013-10-26T16:49,2013-10-23T18:11,2013-10-17T19:10,2013-10-13T16:05,2013-10-09T15:30,2013-10-04T15:58,2013-08-29T16:14
T: Rolling In The Ryegrass
Z: Piano Box Version by Martin Fleischmann
H: Created 2013-02-19 /  Last Modified 2013-02-19
M: 4/4
L: 1/8
R: reel
K: Dmaj
|: "D"!4!A!3!A!4!A!2!F !1!DF!4!A!2!F | "G"!1!G2!3!BG !5!dG!3!B!1!G | "D"!4!ABA!2!F !1!DF!4!A!2!F |1 "A"!3!G!5!BAF !1!E!2!F!1!D!2!F:|2 "A"!3!G!5!BAF !1!E!2!F"D"!1!D2 ||
|: "D"!2!AB!5!d!2!e !3!f!1!def | "G"!4!g2f!1!d !2!B!4!dd!2!B | "D"!1!A!2!B!4!d!2!e !3!fefg | !5!afdf "A"!2!ee!1!d!2!B:|


